svgs/sharp-solid/binary-slash.svg

<svg xmlns="http://www.w3.org/2000/svg" viewBox="0 0 640 512"><!--! Font Awesome Pro 6.6.0 by @fontawesome - https://fontawesome.com License - https://fontawesome.com/license (Commercial License) Copyright 2024 Fonticons, Inc. --><path d="M512 374.7l0-54.7 0-32-32 0-79.7 0-82.4-64 2.1 0 0-32 0-160 0-32L288 0 160 0 128 0l0 32 0 44.6L48.4 14.8 29.4 .1 0 38 19 52.7 591.5 497.2l19 14.7L639.9 474l-19-14.7L512 374.7zM192 126.3L192 64l64 0 0 96-20.6 0L192 126.3zM446.8 448L384 448l0-49.5-64-50.4L320 480l0 32 32 0 128 0 32 0 0-12.6L446.8 448zM352 0l0 64 32 0 16 0 0 96-16 0-32 0 0 64 32 0 48 0 48 0 32 0 0-64-32 0-16 0 0-128 0-32L432 0 384 0 352 0zM128 288l0 64 32 0 16 0 0 96-16 0-32 0 0 64 32 0 48 0 48 0 32 0 0-64-32 0-16 0 0-128 0-32-32 0-48 0-32 0z"/></svg>

<svg xmlns="http://www.w3.org/2000/svg" viewBox="0 0 640 512"><!--! Font Awesome Pro 6.4.0 by @fontawesome - https://fontawesome.com License - https://fontawesome.com/license (Commercial License) Copyright 2023 Fonticons, Inc. --><path d="M352 0V64h32 16v96H384 352v64h32 48 48 32V160H480 464V32 0H432 384 352zM128 288v64h32 16v96H160 128v64h32 48 48 32V448H256 240V320 288H208 160 128zM160 0H128V32 76.6L48.4 14.8 29.4 .1 0 38 19 52.7 591.5 497.2l19 14.7L639.9 474l-19-14.7L512 374.7V320 288H480 400.3l-82.4-64H320V192 32 0H288 160zm75.4 160L192 126.3V64h64v96H235.4zM320 480v32h32H480h32V499.4L446.8 448H384V398.5l-64-50.4V480z"/></svg>
